img/Icons/gas.svg

<svg width="48" height="48" viewBox="0 0 48 48" fill="none" xmlns="http://www.w3.org/2000/svg">
<g clip-path="url(#clip0)">
<path d="M41.9313 28.574L41.8971 28.1043C41.3473 20.9464 38.0144 16.4592 35.0741 12.5013C32.3515 8.83638 30.0001 5.6715 30.0001 1.0017C30.0001 0.626715 29.7901 0.283977 29.4571 0.112046C29.1231 -0.0608224 28.7218 -0.0325109 28.4181 0.188262C24.0023 3.34827 20.3179 8.67429 19.0308 13.7561C18.1373 17.2941 18.0191 21.2715 18.0025 23.8984C13.9245 23.0273 13.0007 16.9269 12.991 16.8605C12.9451 16.5441 12.7518 16.2687 12.4705 16.1183C12.1864 15.9699 11.8524 15.9591 11.5643 16.1017C11.3504 16.2052 6.3154 18.7638 6.02244 28.9802C6.00191 29.32 6.00098 29.6598 6.00098 30.0006C6.00098 39.9251 14.0758 47.9999 24.0003 47.9999C33.9248 47.9999 41.9996 39.9251 41.9996 30.0006C41.9996 29.5026 41.9655 29.0378 41.9313 28.574ZM24.0003 46C20.6918 46 18.0005 43.133 18.0005 39.6087C18.0005 39.4886 17.9996 39.3675 18.0083 39.2191C18.0483 37.7328 18.3306 36.7182 18.6402 36.0434C19.2203 37.2895 20.2582 38.4349 21.9418 38.4349C22.4946 38.4349 22.9418 37.9876 22.9418 37.4349C22.9418 36.0111 22.9712 34.3686 23.3256 32.8862C23.6411 31.5709 24.3949 30.1734 25.35 29.0524C25.7747 30.5074 26.6029 31.685 27.4115 32.8345C28.5687 34.479 29.7649 36.1791 29.9749 39.0784C29.9875 39.2502 30.0003 39.4231 30.0003 39.6086C30.0001 43.133 27.3088 46 24.0003 46ZM30.3199 44.6935C31.3579 43.278 32.0001 41.5283 32.0001 39.6087C32.0001 39.3734 31.9854 39.1546 31.9561 38.7455C31.7188 35.4809 30.2999 33.4634 29.0471 31.6833C27.9798 30.1677 27.0589 28.8582 27.0589 27.0008C27.0589 26.6209 26.844 26.2743 26.5042 26.1053C26.1663 25.9354 25.7581 25.9735 25.4564 26.203C23.5385 27.6522 21.9389 30.0915 21.3804 32.4206C21.0952 33.6149 20.9956 34.9068 20.9605 35.9692C20.2671 35.2232 20.0523 33.8405 20.0504 33.8219C20.0055 33.5006 19.8082 33.2203 19.5202 33.071C19.234 32.9226 18.8913 32.9186 18.6032 33.067C18.3512 33.1959 16.1375 34.4655 16.0106 39.1352C16.0018 39.2934 16.0008 39.4516 16.0008 39.6088C16.0008 41.5284 16.643 43.2781 17.6809 44.6936C11.9939 42.2379 8.00115 36.5786 8.00115 30.0008C8.00115 29.701 8.00021 29.4022 8.02065 29.0691C8.19249 23.0752 10.1104 20.1026 11.3623 18.7912C12.2353 21.9161 14.5223 26.0009 19.0007 26.0009C19.5534 26.0009 20.0007 25.5536 20.0007 25.0009C20.0007 21.6543 20.0759 17.7873 20.9704 14.2464C21.986 10.2348 24.7681 5.90296 28.1264 2.97047C28.684 7.25356 31.0169 10.3941 33.469 13.6937C36.3839 17.6173 39.3975 21.6748 39.9023 28.2449L39.9366 28.7234C39.9678 29.1394 40 29.5545 40 30.0007C39.9997 36.5785 36.007 42.2378 30.3199 44.6935Z" fill="currentColor"/>
</g>
<defs>
<clipPath id="clip0">
<rect width="48" height="48" fill="white"/>
</clipPath>
</defs>
</svg>

<svg xmlns="http://www.w3.org/2000/svg" xmlns:xlink="http://www.w3.org/1999/xlink" viewBox="0 0 48 48"><defs><style>.cls-1{fill:none;}.cls-2{clip-path:url(#clip-path);}.cls-3{fill:#389583;}</style><clipPath id="clip-path"><rect class="cls-1" width="48" height="48"/></clipPath></defs><title>gas</title><g id="Layer_2" data-name="Layer 2"><g class="cls-2"><path class="cls-3" d="M41.93,28.57l0-.47C41.35,21,38,16.46,35.07,12.5,32.35,8.84,30,5.67,30,1A1,1,0,0,0,28.42.19,25.41,25.41,0,0,0,19,13.76,44.62,44.62,0,0,0,18,23.9c-4.08-.87-5-7-5-7a1,1,0,0,0-.52-.74,1,1,0,0,0-.91,0C11.35,16.21,6.32,18.76,6,29c0,.34,0,.68,0,1a18,18,0,0,0,36,0C42,29.5,42,29,41.93,28.57ZM24,46a6.21,6.21,0,0,1-6-6.39c0-.12,0-.24,0-.39A8.14,8.14,0,0,1,18.64,36a3.65,3.65,0,0,0,3.3,2.39,1,1,0,0,0,1-1,19.64,19.64,0,0,1,.39-4.54,9.51,9.51,0,0,1,2-3.84,12.68,12.68,0,0,0,2.06,3.78A11.41,11.41,0,0,1,30,39.08a4.45,4.45,0,0,1,0,.53A6.21,6.21,0,0,1,24,46Zm6.32-1.31A8.53,8.53,0,0,0,32,39.61c0-.24,0-.46,0-.86a13.14,13.14,0,0,0-2.91-7.07c-1.07-1.51-2-2.82-2-4.68a1,1,0,0,0-1.6-.8,11.69,11.69,0,0,0-4.08,6.22A19.12,19.12,0,0,0,21,36a4.78,4.78,0,0,1-.91-2.15,1,1,0,0,0-.53-.75,1,1,0,0,0-.92,0c-.25.13-2.46,1.4-2.59,6.07,0,.15,0,.31,0,.47a8.53,8.53,0,0,0,1.68,5.08A16,16,0,0,1,8,30c0-.3,0-.6,0-.93.17-6,2.09-9,3.34-10.28C12.24,21.92,14.52,26,19,26a1,1,0,0,0,1-1,44.82,44.82,0,0,1,1-10.75A23.72,23.72,0,0,1,28.13,3c.55,4.28,2.89,7.42,5.34,10.72,2.91,3.93,5.93,8,6.43,14.55l0,.48c0,.42.06.83.06,1.28A16,16,0,0,1,30.32,44.69Z"/></g></g></svg>
